X:1
T:同桌的你
M:6/8
L:1/8
V:1
Q:1/4=100
K:C
|:GGGGEF|G3B3|AAAAFA|G3-Gz2|
w: 明 天 你 是 否 会|想 起|昨 天 你 写 的 日|记|
|GGGGBA|G2FF3|FFFFE3/2D/2|C3-C2z|
w: 明 天 你 是 否 还|惦 记|曾 经 最 爱 哭 的|你|
|ccccGA|c2ce3|dddd3/2c/2B|A3-A2z|
w: 谁 娶 了 多 愁 善|感 的 你|谁 看 了 你 的 日|记|
|BBBBBc|d3G3|BBcdcB|c3-c2z:|
w: 谁 把 你 的 长 发|盘 起|谁 给 你 做 的 嫁|衣|
|c2ccGA|c3e3|d2ddcB|A3-A3|
w: 啦|
|B2BBBc|d3G3|BBcdcB|c3-c3|
w: 啦|
|c2ccGA|c3e3|d2ddcB|A3-A3|
w: 啦|
|BBBBBc|d3G3|BBcdcB|d6-|
w: 啦|
|d6|c6-|c6|
w: 啦|